X:1
T:Holy Holy Holy
T:Holy Holy Holy
T:utilizing Pachelbel's Canon
T:arrangement by Natouchka composed by John B. Dyk 
C:John B. Dyk
%%score [ [ 1 2 ] 3 ]
L:1/8
Q:1/4=96
M:4/4
K:D
V:1 treble nm="Violin I" snm="Vln. I"
V:2 treble nm="Violin II" snm="Vln. II"
V:3 bass nm="Violoncello" snm="Vc."
V:1
 z FAB z EAc | z DFB z CFA | z B,DG z A,DF | z B,DG z CEA | D2 D2 C2 C2 | B,4 F4 | G4 F4 | %7
 z2 GA B2 c2 | D3 D E2 E2 | D2 D2 C2 C2 | B,2 B,C D3 F | E8 | F2 F2 E2 E2 | D4 F4 | G3 G F2 F2 | %15
 G4 E4 | D4 A2 A2 | B4 F4 | G2 E2 E3 D | d2 DF z2 CE | z2 B,D z2 A,C | z2 G,B, z2 FA, | %22
 z2 B,C D2 C2 | d2 A2 e2 c2 | d4 A4 | G3 G F2 F2 | G4 F4 | F3 F A2 A2 | B2 B2 A2 A2 | G2 G2 A3 A | %30
 (B4 c4) | d2 d2 A2 A2 | F2- F2 A4 | B3 B d2 c2 | B4 A4 | d4 A2 A2 | B4 F4 | B2 d2 d3 c | d4 z4 | %39
 f2 fd/e/ f/F/G/A/ B/c/d/e/ | dB/c/ dB/c/ dFGA | BG/A/ BG/A/ Bcde | d2 A2 e2 c2 | d4 A4 | %44
 B3 B A2 d2 | (d4 c4) | d3 d c2 c2 | B2 B2 A2 c2 | d2 d2 d3 d | e8 | f2 f2 e2 e2 | d4 c4 | %52
 B3 B A2 A2 | B4 c4 | d4 A2 A2 | B4 F4 | B2 d2 d3 c | ddfa gedc | b2 b2 a2 a2 | g4 d4 | g4 f4 | %61
 z2 (GA) B2 c2 | A4 A2 A2 | B4 A4 | d4 d2 d2 | f4 e4 | f4 e4 | d4 c4 | B4 A2 A2 | B6 c2 | d8- | %71
 d8 |] %72
V:2
 z FAB z EAc | z DFB z CFA | z B,DG z A,DF | z B,DG z CEA | d2 d2 c2 c2 | B4 f4 | g4 f4 | %7
 z2 ga b2 c'2 | D3 D C2 C2 | B,2 B,2 A,2 A,2 | G,2 G,2 F3 D | (B4 A4) | D2 D2 C2 C2 | B,4 C4 | %14
 D3 D D2 D2 | D4 C4 | D4 A2 A2 | B4 F4 | G2 E2 E3 D | z A, A,2 z A, A,2 | z F F2 z F F2 | %21
 z D D2 z D D2 | z D G,2 z E A,2 | F2 F2 A2 G2 | (F3 E) (D2 C2) | B,3 C D2 C2 | (B,2 D2) (F2 E2) | %27
 D3 D C2 C2 | D2 D2 C2 C2 | B,2 D2 F3 D | (G4 A4) | F2 F2 (AG)(FE) | F2- F2 (F2 E2) | %33
 D3 D (DE)(FE) | (D2 F2) E4 | D4 A2 A2 | B4 F4 | G2 G2 (FG)AG | F4 z4 | %39
 fd/e/ fd/e/ f/F/G/A/ B/c/d/e/ | dB/c/ dB/c/ dFGA | GE/F/ GE/F/ GABc | F2 F2 A2 G2 | F4 D4 | %44
 D3 E F2 D2 | (D2 F2 E4) | F3 F A2 A2 | F2 F2 A2 A2 | (GA)(BA) A3 F | E8 | A2 A2 A2 G2 | F4 F4 | %52
 G3 G F2 A2 | G4 E4 | D4 z4 | B4 F4 | G2 G2 G3 G | F4 GEDC | B2 B2 A2 A2 | G4 D4 | G4 F4 | %61
 z2 (GA) B2 c2 | F4 E2 E2 | F4 F4 | B4 A2 A2 | B4 c4 | A2 A2 (AB)AG | F4 (FGFE) | D2 G2 F2 D2 | %69
 G2 (GA) G2 G2 | (G8 | F8) |] %72
V:3
 D,4 A,,4 | B,,4 F,,4 | G,,4 D,,4 | G,,4 A,,4 | D,4 A,,4 | B,,4 F,,4 | G,,4 D,,4 | G,,4 A,,4 | %8
 D,4 A,,4 | B,,4 F,,4 | G,,4 D,,4 | G,,4 A,,4 | D,4 A,,4 | B,,4 F,,4 | G,,4 D,,4 | G,,4 A,,4 | %16
 D,4 A,,4 | B,,4 F,,4 | G,,4 A,,4 | D,4 A,,4 | B,,4 F,,4 | G,,4 D,,4 | G,,4 A,,4 | D,4 A,,4 | %24
 B,,4 F,,4 | G,,4 D,,4 | G,,4 A,,4 | D,4 A,,4 | B,,4 F,,4 | G,,4 D,,4 | G,,4 A,,4 | D,4 A,,4 | %32
 B,,4 F,,4 | G,,4 D,,4 | G,,4 A,,4 | D,4 A,,4 | B,,4 F,,4 | G,,4 A,,4 | D,4 A,,4 | B,,4 F,,4 | %40
 G,,4 D,,4 | G,,2 G,2 A,,2 A,2 | D,4 A,,4 | B,,4 F,,4 | G,,4 D,,4 | G,,D, G,2 A,,E, A,2 | %46
 D,4 A,,4 | B,,4 F,,4 | G,,4 D,,4 | G,,D, G,2 A,,E, A,2 | D,4 A,,4 | B,,4 F,,4 | G,,4 D,,4 | %53
 G,,4 A,,4 | D,4 A,,4 | B,,4 F,,4 | G,,4 A,,4 | D,,2 D,2 A,,2 E,2 | D,4 A,,4 | B,,4 F,,4 | %60
 G,,4 D,,4 | G,,4 A,,4 | D,4 A,,4 | B,,4 F,,4 | G,,4 D,,4 | G,,4 A,,4 | D,4 A,,4 | B,,4 F,,4 | %68
 G,,4 D,,4 | G,,4 A,,4 | D,8- | D,4 [D,,A,,]4 |] %72

